X:1
T:Prince of Peace, CMD
T:Prince of Peace, CMD
T:John Bacchus Dykes, 1874
T:Public Domain Courtesy of the Cyber Hymnal™
C:John Bacchus Dykes, 1874
Z:Public Domain
Z:Courtesy of the Cyber Hymnal™
%%score ( 1 2 ) ( 3 4 )
L:1/8
M:4/4
K:A
V:1 treble 
V:2 treble 
V:3 bass 
V:4 bass 
V:1
 [Ac]2 | [Ae]3 [Ac] A2 [GB]2 | [Ac]2 [EA]2 F2 [DA]2 | E2 [EA]2 [GB]2 [Ac]2 | B6 [Ec]2 | %5
 [Ee]3 [Gc] A2 [EB]2 | [Ec]2 [EA]2 [EG]2 [EF]2 | [EB]2 (cB) [EA]2 (FG) | E6 E2 | B2 G2 E3 [EF] | %10
 [EG]2 [EA]2 B2 [Ac]2 | d2 e2 (dc) (BA) | ([^DB-]4 [EB]2) (c^d) | [Ee]3 [Ec] [CA]2 B2 | %14
 [^Ec]2 [FA]2 ([FA][GB]) ([FA][DF]) | [CE]3 [CE] [EA]2 A2 | [EA]2 [CE]2 [EA]2 [Ac]2 | %17
 (e2 fe d2) (Bc) | A6 |] %19
V:2
 x2 | x8 | x8 | x8 | (A2 GF G2) x2 | x8 | x8 | x2 E2 x ^D2 x | E6 E2 | B2 G2 E3 x | x8 | %11
 (AG) (FE) E2 ^D2 | x6 E2 | x6 GF | x8 | x6 (EF) | x8 | A6 G2 | A6 |] %19
V:3
 [A,E]2 | [A,C]3 [A,E] [A,C]2 [A,D]2 | [A,E]2 [A,C]2 [D,A,]2 [F,D]2 | [A,C]2 C2 [B,D]2 [A,E]2 | %4
 (D2 B,2 E2) [A,C]2 | [G,B,]3 [E,E] [F,C]2 [G,B,]2 | A,2 [C,A,]2 [B,,B,]2 [A,,C]2 | %7
 [B,,G,]2 (A,G,) (F,G,) (A,B,) | [E,G,]6 E,2 | B,2 G,2 E,3 [E,A,] | [E,B,]2 [E,C]2 [E,D]2 [E,C]2 | %11
 [E,B,]2 [E,G,]2 A,2 [F,B,]2 | (B,A,G,F, G,2) ([C,A,][B,,B,]) | [A,,C]3 [E,G,] [F,A,]2 [D,D]2 | %14
 [C,G,]2 [F,A,]2 [D,A,]2 [D,A,]2 | A,3 A, C2 (CD) | C2 E2 C2 [E,A,]2 | (C2 DCB,C) (DE) | [A,,C]6 |] %19
V:4
 x2 | x8 | x8 | x8 | E,6 x2 | x8 | x8 | x2 B,,2 B,,2 B,,2 | x6 E,2 | B,2 G,2 E,3 x | x8 | %11
 x4 A,2 x2 | B,,4 (E,D,) x2 | x8 | x8 | E,8 | E,6 x2 | E,4 E,4 | x6 |] %19

